X:1
T:Shiny Gun (Hark the Herald Angels Sing)
M:4/4
L:1/4
K:C
 G, C C3/2 B,/2| C E E- D| G G G3/2 F/2| E D E3/2 z/2| G, C C3/2 B,/2|\
 C E E- D| G D D3/2 C/2| B, A, G,2| G G G3/2 C/2| F E E- D| G G G3/2 C/2|\
 F E E- D| A A A3/2 G/2| F E F3/2 z/2| DE/2-F/2 G3/2 C/2| C D E2| A3/2 A/2 A G|\
 F E F2| DE/2-F/2 G3/2 C/2| C D E2| A3/2 A/2 A G| F E F2| DE/2-F/2 G3/2 C/2|\
 C D C2|
